svg/uf011d-mobility.svg

<svg height="960" style="" width="1320" xmlns="http://www.w3.org/2000/svg"><path d="m659.7783 60-539.8543 612.75126h358.23268l-203.6592 227.24874h182.06502l203.43751-227.24874 203.43752 227.24874h181.84327l-203.43745-227.24874h358.23265zm0 61.54561 450.1964 510.54477h-304.44682l-145.52787-162.55492-145.52786 162.55492h-304.6685zm.44343 74.89232-340.76226 386.8771h156.2141l184.54816-206.14231 184.37076 206.14231h156.61321z" style="stroke-width:22.7027"/></svg>

<svg xmlns="http://www.w3.org/2000/svg" width="1320" height="960">
    <path d="M659.778 60 119.924 672.751h358.233L274.497 900h182.066L660 672.751 863.438 900h181.843L841.843 672.751h358.233zm0 61.546 450.197 510.544H805.528L660 469.535 514.472 632.09H209.804zm.444 74.892L319.459 583.315h156.215l184.548-206.142 184.37 206.142h156.614z" style="stroke-width:22.7027"/>
</svg>
